X:1
T:Title
%%score ( 1 2 ) ( 3 4 )
L:1/8
Q:1/4=82
M:4/8
K:C
V:1 treble nm="Grand Piano, Soprano"
V:2 treble 
V:3 bass nm="Choir Pad, Maldives, Peter P. Bliss"
V:4 bass 
V:1
 [EG][CE]/[DF]/[EG][EG] | [FA] [Fc]3 | G[CE][B,F][CE] | [B,D]3 z | [EG][CE]/[DF]/[EG][EG] | %5
w: By~Philip~Paul~Bliss,~1870 * * * *|||||
 [FA] [Fc]3 | [DB][CA]/[DB]/[Ec][Fd] | [Ec]3 z | [Gd][Gd][Gd]c/d/ | [Ge] [Ec]3 | [FA][FB]c/c/[FA] | %11
w: ||||||
 [EG]3 z | [Ec][CE]/[DF]/[EG][EG] | [FA] [Fc]3 | [DB][CA]/[DB]/[Ec][Fd] | [Ec]4- | [Ec]3 z |] %17
w: ||||||
V:2
 x4 | x4 | x4 | x4 | x4 | x4 | x4 | x4 | z2 z G | x4 | z2 F z | x4 | x4 | x4 | x4 | x4 | x4 |] %17
V:3
 [C,C][C,C][C,C][C,C] | [F,C] [F,A,]3 | z2 z G, | G,3 z | [C,G,][C,C][C,C][C,C] | [F,C] [F,A,]3 | %6
 G,G,G,[G,,G,] | [C,G,]3 z | [G,B,][G,B,][G,B,]A,/B,/ | [C,C] [C,C]3 | [F,C][F,A,][F,A,][F,C] | %11
 [C,C]3 z | [C,G,][C,C][C,C][C,C] | [F,C] [F,A,]3 | G,G,G,[G,,G,] | [C,G,]4- | [C,G,]3 z |] %17
V:4
 x4 | x4 | [E,C][C,G,][D,G,]E,/F,/ | x4 | x4 | x4 | x4 | x4 | z2 z G, | x4 | x4 | x4 | x4 | x4 | %14
 x4 | x4 | x4 |] %17

